images/icon/section_ranking.svg

<svg width="37" height="37" viewBox="0 0 37 37" fill="none" xmlns="http://www.w3.org/2000/svg">
<path d="M1.14233 30.3234H18.1723" stroke="#544545" stroke-width="2" stroke-miterlimit="22.9256" stroke-linecap="round" stroke-linejoin="round"/>
<path d="M2.56116 30.3235V14.7128H8.23781V30.3235" stroke="#544545" stroke-width="2" stroke-miterlimit="22.9256" stroke-linecap="round" stroke-linejoin="round"/>
<path d="M11.7856 30.3233V8.32629H17.4623V30.3233" stroke="#544545" stroke-width="2" stroke-miterlimit="22.9256" stroke-linecap="round" stroke-linejoin="round"/>
<path d="M20.3013 19.6796V1.23047H25.9779V16.8493" stroke="#544545" stroke-width="2" stroke-miterlimit="22.9256" stroke-linecap="round" stroke-linejoin="round"/>
<path d="M27.0424 17.5509C22.1487 17.5509 18.1726 21.686 18.1726 26.7755C18.1726 31.8649 22.1487 36 27.0424 36C31.936 36 35.9121 31.8649 35.9121 26.7755C35.9121 21.686 31.936 17.5509 27.0424 17.5509Z" stroke="#E60000" stroke-width="2" stroke-miterlimit="22.9256" stroke-linecap="round" stroke-linejoin="round"/>
<path d="M30.8061 23C30.0473 23.3208 24.0848 29.8431 23.0007 30.8054" stroke="#E60000" stroke-width="2" stroke-miterlimit="22.9256" stroke-linecap="round" stroke-linejoin="round"/>
<path d="M30.8049 29.3862V23H24.4187" stroke="#E60000" stroke-width="2" stroke-miterlimit="22.9256" stroke-linecap="round" stroke-linejoin="round"/>
</svg>

<svg width="37" height="37" fill="none" xmlns="http://www.w3.org/2000/svg"><path d="M1.142 30.323h17.03m-15.611 0v-15.61h5.677v15.61m3.548 0V8.326h5.676v21.997m2.839-10.643V1.23h5.677v15.62" stroke="#544545" stroke-width="2" stroke-miterlimit="22.926" stroke-linecap="round" stroke-linejoin="round"/><path d="M27.042 17.55c-4.893 0-8.87 4.136-8.87 9.226 0 5.089 3.977 9.224 8.87 9.224 4.894 0 8.87-4.135 8.87-9.224 0-5.09-3.976-9.225-8.87-9.225zM30.806 23c-.759.32-6.721 6.843-7.805 7.805" stroke="#E60000" stroke-width="2" stroke-miterlimit="22.926" stroke-linecap="round" stroke-linejoin="round"/><path d="M30.805 29.386V23h-6.386" stroke="#E60000" stroke-width="2" stroke-miterlimit="22.926" stroke-linecap="round" stroke-linejoin="round"/></svg>
